src/food-drink/food-vegetable/1F330.svg

<svg id="emoji" viewBox="0 0 72 72" xmlns="http://www.w3.org/2000/svg">
  <g id="grid">
    <path fill="#b3b3b3" d="M68,4V68H4V4H68m4-4H0V72H72V0Z"/>
    <path fill="none" stroke="#00a5ff" stroke-miterlimit="10" stroke-width="0.1" d="M12.923,10.9583H59.0769A1.9231,1.9231,0,0,1,61,12.8814V59.0352a1.9231,1.9231,0,0,1-1.9231,1.9231H12.9231A1.9231,1.9231,0,0,1,11,59.0352V12.8813A1.923,1.923,0,0,1,12.923,10.9583Z"/>
    <rect x="16" y="4" rx="2.2537" ry="2.2537" width="40" height="64" fill="none" stroke="#00a5ff" stroke-miterlimit="10" stroke-width="0.1"/>
    <rect x="16" y="4" rx="2.2537" ry="2.2537" width="40" height="64" transform="translate(72) rotate(90)" fill="none" stroke="#00a5ff" stroke-miterlimit="10" stroke-width="0.1"/>
    <circle cx="36" cy="36" r="29" fill="none" stroke="#00a5ff" stroke-miterlimit="10" stroke-width="0.1"/>
  </g>
  <g id="color">
    <path fill="#a57939" d="M28,28.6136l18-1s5,25-1,25l-9,5-7.79-4.7685C24,40.6136,28,28.6136,28,28.6136Z"/>
    <path fill="#f1b31c" d="M17,23.6136s.4223-2.3167,4-5c4-3,16-5,16-5l-14,12Z"/>
    <path fill="#6a462f" d="M27,27.6136l-11.2506-4S3,42.6136,27,51.6136Z"/>
    <path fill="#6a462f" d="M47,27.6136l11.2506-4s10.4988,11.429-11.2506,28l1-13Z"/>
    <path fill="#f1b31c" d="M16.9266,23.4983l.0839.1938C34.5076,34.1845,57,23.6136,57,23.6136A23.8426,23.8426,0,0,0,37.6436,13.506"/>
  </g>
  <g id="line">
    <path fill="none" stroke="#000000" stroke-miterlimit="10" stroke-width="2" d="M16.9266,23.4983l.0839.1938C34.5076,34.1845,57,23.6136,57,23.6136A23.8426,23.8426,0,0,0,37.6436,13.506"/>
    <path fill="none" stroke="#000000" stroke-miterlimit="10" stroke-width="2" d="M16,23.6136c17.4971,10.4924,41,0,41,0"/>
    <path fill="none" stroke="#000000" stroke-miterlimit="10" stroke-width="2" d="M46.4732,27.5435s4.6059,13.5332-1.1843,25.3016"/>
    <path fill="none" stroke="#000000" stroke-miterlimit="10" stroke-width="2" d="M46.4732,27.5435s4.6059,13.5332-1.1843,25.3016"/>
    <path fill="none" stroke="#000000" stroke-linecap="round" stroke-linejoin="round" stroke-width="2" d="M21.9774,17.807C15.82,21.79,11.7326,28.1967,12.1108,35.5487c.3892,7.5649,6.78,14.6806,13.5472,16.3619,4.101,1.0189,8.7043,4.8382,10.0172,5.9834a.625.625,0,0,0,.7731.0409A69.4328,69.4328,0,0,1,44.9966,52.95c8.5745-4.2024,13.5034-9.836,14.977-17.4009,2.291-11.7612-10.0847-22.0421-23.3016-22.0421a27.39,27.39,0,0,0-11.3832,2.4845"/>
    <path fill="none" stroke="#000000" stroke-miterlimit="10" stroke-width="2" d="M27.0255,27.5435A113.7564,113.7564,0,0,0,28.21,52.8451"/>
  </g>
</svg>

<svg viewBox="0 0 72 72" xmlns="http://www.w3.org/2000/svg"><path fill="#b3b3b3" d="M68 4v64H4V4h64m4-4H0v72h72V0z"/><path fill="none" stroke="#00a5ff" stroke-miterlimit="10" stroke-width=".1" d="M12.923 10.958h46.154A1.923 1.923 0 0161 12.881v46.154a1.923 1.923 0 01-1.923 1.923H12.923A1.923 1.923 0 0111 59.035V12.881a1.923 1.923 0 011.923-1.923z"/><rect x="16" y="4" rx="2.254" ry="2.254" width="40" height="64" fill="none" stroke="#00a5ff" stroke-miterlimit="10" stroke-width=".1"/><rect x="16" y="4" rx="2.254" ry="2.254" width="40" height="64" transform="rotate(90 36 36)" fill="none" stroke="#00a5ff" stroke-miterlimit="10" stroke-width=".1"/><circle cx="36" cy="36" r="29" fill="none" stroke="#00a5ff" stroke-miterlimit="10" stroke-width=".1"/><g stroke-linecap="round" stroke-miterlimit="10" stroke-width="6" stroke="#fff" fill="none" stroke-linejoin="round"><path d="M16.927 23.498l.084.194C34.508 34.184 57 23.614 57 23.614a23.843 23.843 0 00-19.356-10.108M16 23.614c17.497 10.492 41 0 41 0m-10.527 3.93s4.606 13.533-1.184 25.301m1.184-25.301s4.606 13.533-1.184 25.301"/><path d="M21.977 17.807c-6.157 3.983-10.244 10.39-9.866 17.742.389 7.565 6.78 14.68 13.547 16.362 4.101 1.018 8.704 4.838 10.017 5.983a.625.625 0 00.773.04 69.433 69.433 0 018.549-4.984c8.574-4.202 13.503-9.836 14.977-17.4 2.29-11.762-10.085-22.043-23.302-22.043a27.39 27.39 0 00-11.383 2.485m1.737 11.552a113.756 113.756 0 001.184 25.301"/></g><path fill="#a57939" d="M28 28.614l18-1s5 25-1 25l-9 5-7.79-4.769C24 40.614 28 28.614 28 28.614z"/><path fill="#f1b31c" d="M17 23.614s.422-2.317 4-5c4-3 16-5 16-5l-14 12z"/><path fill="#6a462f" d="M27 27.614l-11.25-4s-12.75 19 11.25 28zm20 0l11.25-4s10.5 11.429-11.25 28l1-13z"/><path fill="#f1b31c" d="M16.927 23.498l.084.194C34.508 34.184 57 23.614 57 23.614a23.843 23.843 0 00-19.356-10.108"/><g fill="none" stroke="#000" stroke-width="2"><path stroke-miterlimit="10" d="M16.927 23.498l.084.194C34.508 34.184 57 23.614 57 23.614a23.843 23.843 0 00-19.356-10.108M16 23.614c17.497 10.492 41 0 41 0m-10.527 3.93s4.606 13.533-1.184 25.301m1.184-25.301s4.606 13.533-1.184 25.301"/><path stroke-linecap="round" stroke-linejoin="round" d="M21.977 17.807c-6.157 3.983-10.244 10.39-9.866 17.742.389 7.565 6.78 14.68 13.547 16.362 4.101 1.018 8.704 4.838 10.017 5.983a.625.625 0 00.773.04 69.433 69.433 0 018.549-4.984c8.574-4.202 13.503-9.836 14.977-17.4 2.29-11.762-10.085-22.043-23.302-22.043a27.39 27.39 0 00-11.383 2.485"/><path stroke-miterlimit="10" d="M27.026 27.544a113.756 113.756 0 001.184 25.301"/></g></svg>
